X:3345
L:1/8
M:3/4
K:C
"^A""C" eg c3 e |"Dm/F" fa d4 |"G7" Bd fa gf |"C" eg ce gf | eg c3 e |"Dm/F" fa d4 |"G7" Bd fa gB | 
"C" c2 c2 z2 ::[K:G]"^B""D7" d>d b2 a2 |"G" gB d4 |"D7" gg f2 f2 |"G" aa g2 g2 |"D7" d>d b2 a2 | 
"G" g>B d4 |"D7" gg fd ba |"G" g2"_> Teil A" g2 z2 ::[K:F]"^C""F" aa a2 a2 | (b4 a2) | 
 .a2 .g2 .f2 |"C7" e6 | gg g2 g2 | (a4 g2) | .g2 .f2 .e2 |"F" f6 | aa a2 a2 | (b4 a2) | 
 .a2 .g2 .f2 |"C7" e6 | g>^f g2 c2 |"F" a>^g a2 c2 |"C7" b>a g>f e>g |"F" f2 f2 z2 :|

